build/img/icon-logo-star.svg

<svg width="21" height="21" viewBox="0 0 21 21" fill="none" xmlns="http://www.w3.org/2000/svg">
<path fill-rule="evenodd" clip-rule="evenodd" d="M8.44027 17.4466L8.41146 17.3883L-6.10352e-05 12L2.99582 9.78641L5.47319 0L8.46908 2.21359L18.465 1.57282L17.3127 5.12621L20.9999 14.534H17.2839L17.2551 14.5631L9.56373 21L8.44027 17.4466Z" fill="black"/>
<path fill-rule="evenodd" clip-rule="evenodd" d="M8.44127 17.3548V17.413L14.2602 14.5004L15.3548 14.5296H17.2561H17.2849L17.1697 13.6558L16.3631 8.03441L17.3137 5.15091H17.2849L17.1985 5.12179L10.9186 4.01499L8.47008 2.20917V2.23829L7.7211 3.63635L5.44538 8.00528L3.11205 9.72373L2.99683 9.81111L7.51946 14.5004L8.44127 17.3548Z" fill="white"/>
</svg>

<svg width="21" height="21" fill="none" xmlns="http://www.w3.org/2000/svg"><path fill-rule="evenodd" clip-rule="evenodd" d="M8.44 17.447l-.029-.059L0 12l2.996-2.214L5.473 0 8.47 2.214l9.996-.641-1.152 3.553L21 14.534h-3.716l-.029.03L9.564 21 8.44 17.447z" fill="#000"/><path fill-rule="evenodd" clip-rule="evenodd" d="M8.441 17.355v.058l5.82-2.913 1.094.03h1.93l-.115-.874-.807-5.622.95-2.883h-.028l-.087-.03-6.28-1.106L8.47 2.209v.03l-.749 1.397-2.276 4.37-2.333 1.718-.115.087 4.522 4.69.922 2.854z" fill="#fff"/></svg>
